X:1
T:St. Barnabas (Gauntlett), 11.10.11.10
T:St. Barnabas (Gauntlett), 11.10.11.10
T:Henry John Gauntlett, 1875
T:Public Domain Courtesy of the Cyber Hymnal™
C:Henry John Gauntlett, 1875
Z:Public Domain
Z:Courtesy of the Cyber Hymnal™
%%score ( 1 2 ) ( 3 4 )
L:1/8
Q:1/4=113
M:3/4
K:Ab
V:1 treble 
V:2 treble 
V:3 bass 
V:4 bass 
V:1
 [CE]2 [CF]2 [CE]2 | [DE]4 [DE]2 | [CE]3 [CA] [Ec][Ee] | [Ee]2 [Ed]4 | [DE]2 [DF]2 [DE]2 | %5
 [DE]4 [B,E]2 | [B,G][CA] [DB].[Cc] .[Fd].[Ee] | d2 c4 | [Fc]2 [Ac]2 =B2 | [Ec]4 [EB]2 | %10
 [EB][E=A] [Cf]3 [Fc] | [Fe]2 [Fd]2 [=Ec]2 | [=Ec]3 [EG] [CA][=DB] | EF G[FA] ([GB][Ac]) | %14
 c2 d2 [EG]2 | [EA]6 |] %16
V:2
 x6 | x6 | x6 | x6 | x6 | x6 | x6 | E6 | x4 (GF) | x6 | x6 | x6 | x6 | E3 x3 | AG GF x2 | x6 |] %16
V:3
 [A,,E,]2 [A,,F,]2 [A,,E,]2 | [G,,B,]4 [G,,B,]2 | [A,,E,]3 [A,,E,] [A,,E,][A,,C,] | %3
 [B,,G,]2 [B,,G,]4 | [E,G,]2 [E,A,]2 [E,G,]2 | [E,G,]4 [E,G,]2 | DC B,[E,A,] [E,A,][E,G,] | %7
 G,2 A,4 | [A,C]2 [F,=D]2 [G,D]2 | [C,C]4 [C,C]2 | [F,C][F,C] [F,=A,]3 [=A,,C] | %11
 [=A,,C]2 [B,,B,]2 [C,G,]2 | [C,G,]3 [C,B,] [F,A,][F,A,] | G,A, B,C (DC) | C2 B,C (DB,) | %15
 [A,,C]6 |] %16
V:4
 x6 | x6 | x6 | x6 | x6 | x6 | E,3 x3 | A,,6 | x6 | x6 | x6 | x6 | x6 | E,4 E,2 | E,4 E,2 | x6 |] %16

